X:1
T:Title
%%score { ( 1 3 ) | ( 2 4 ) }
L:1/8
Q:1/4=100
M:4/4
K:D
V:1 treble nm="Grand Piano"
V:3 treble 
V:2 bass 
V:4 bass 
V:1
 [FA]2 [FA][FA] [GB][FA]FA | E6 F2 | [DG]2 [DB]2 [CB][CA][CE][CG] |[M:3/4] [DF]6 |[M:1/4] [FA]2 | %5
w: Wm.~J.~Kirkpatrick * * * * * *|||||
[M:4/4] [Fd]2 [Fd]2 edBd | [Fd]6 F2 | E2 A2 ^GdFG | [CA]6 z2 | [EG]2 [EG][EG] [GB][FA][=F^G][^FA] | %10
w: |||||
 [DF]8 | [A,EG]2 [EG][EG] [GB][FA][=F^G][^FA] | [DF]6 z2 | [Fd]3 [Fd] edBd | [Fd]6 [A,DF]2 | %15
w: |||||
 [B,DE][DB][DB][DB] [DA]2 z G, | D6 z2 |] %17
w: ||
V:2
 [D,D]2 [D,D][D,D] [D,D][D,D][D,A,D][F,A,D] | [A,C]6 [D,A,D]2 | %2
 [B,,G,]2 [G,,G,]2 [A,,E,][A,,E,][A,,A,][A,,A,] |[M:3/4] [D,A,]6 |[M:1/4] [D,D]2 | %5
[M:4/4] [D,A,]2 [D,A,]2[K:treble] [G,B,G][G,B,G][G,DG][G,B,G] | [D,A,]6 [D,A,D]2 | %7
 [E,A,C]2 [E,CE]2 [E,B,E][E,B,E][E,A,D][E,B,D] | [A,,A,]6 z2 | %9
 [C,A,]2 [A,,A,][A,,A,] [C,A,]2 [A,,A,]2 | [D,A,]2 A,,2 D,4 | C,2 [A,,A,][A,,A,] [C,A,]2 [A,,A,]2 | %12
 [D,A,]2 A,,2 D,2 A,2 | [D,A,]3 [D,A,=C][K:treble] [G,B,G][G,B,G][G,DG][G,B,G] | z2 A,4 z2 | %15
 G,,[G,,G,][G,,G,][G,,G,] [A,,F,]2 .[A,,E,A,]2 | [D,F,A,]6 z2 |] %17
V:3
 x8 | x8 | x8 |[M:3/4] x6 |[M:1/4] x2 |[M:4/4] x8 | x8 | x8 | x8 | x8 | z2 A,2 A,4 | x8 | %12
 z2 A,2 A,2 A2 | x8 | x8 | z4 z2 C2 | x8 |] %17
V:4
 x8 | x8 | x8 |[M:3/4] x6 |[M:1/4] x2 |[M:4/4] x4[K:treble] x4 | x8 | x8 | x8 | x8 | x8 | x8 | x8 | %13
 x4[K:treble] x4 | [D,A,]2 z2 F,2 D,2 | x8 | x8 |] %17

